X:1
T:Title
%%score { 1 | 2 }
L:1/8
M:4/4
K:E
V:1 treble nm="Grand Piano"
V:2 bass 
V:1
 z4 z2[Q:1/4=114] [G,B,]2 | [G,B,E]2 [B,DF]2 [B,EG]3 [B,DF] | [B,EG]2 [B,FA]2 [EGB]3 [G,E] | %3
 [B,EG]3 [B,EG] [B,FA]2 [B,EG]2 | [B,DF]6 [A,B,]2 | [G,B,E]2 [B,DF]2 [B,EG]3 [B,DF] | %6
 [B,EG]2 [B,FA]2 [EGB]3 [G,E] | [B,EG]3 [B,EG] [B,DG]2 [A,DF]2 |[M:3/4] [G,E]6 |[M:1/4] [EGB]2 | %10
[M:4/4] [Ge]3 [Ge] [Ge]2 [Ac]2 | [GB]6 [GB]2 | [Ge]3 [Ge] [Ge]2 [EG]2 | [DF]6 [DF]2 | %14
 [EG]2 [FA]2 [GB]3 [GB] |[M:19/16] c-<cd-<de/-e/-e/-e/-e/-e-<ec |[M:4/4] B3 G [DG]2 [DF]2 | %17
[M:3/4] E6 |] %18
V:2
 z4 z2 E,2 | E,2 B,,2 E,3 E, | E,2 E,2 E,3 E, | E,3 E, D,2 E,2 | B,,6 B,,2 | E,2 B,,2 E,3 E, | %6
 E,2 E,2 E,3 E, | B,,3 B,, B,,2 B,,2 |[M:3/4] E,6 |[M:1/4] E,2 | %10
[M:4/4] [E,B,]3 [E,B,] [E,B,]2 [E,E]2 | [E,E]6 [E,E]2 | [E,B,]3 [E,B,] [E,B,]2 [E,B,]2 | %13
 [B,,B,]6 [B,,B,]2 | [E,B,]2 [E,B,]2 [E,E]3 [E,E] | %15
[M:19/16][K:treble] [A,EA]-<[A,EA][A,B,A]-<[A,B,A][A,CA]/-[A,CA]/-[A,CA]/-[A,CA]/-[A,CA]/-[A,CA]-<[A,CA][A,EA] | %16
[M:4/4] [B,EG]3[K:bass] [B,E] [B,,B,]2 [B,,A,]2 |[M:3/4] [E,G,]6 |] %18

